X: 1
T: Miss Grace Hay's Reel
C: Robert Mackintosh
R: jig
Z: 2013 John Chambers <jc:trillian.mit.edu>
M: C|
L: 1/8
K: G
D |\
"G"GFG "(D)"DEF | "Em"GFG EFG | "Am"AGA "D7"FGA | "G"Bcd "C"efg |\
"G"GFG "(D)"DEF | "Em"GFG EFG | "Am"AcB "D7"AGF | "G"G3 G2 :|
G |\
"G"Bcd GBd | "C"gfe "G"dBG | "Am"ABc EFG | "A7"ABG "D7"FED |\
"G"Bcd GBd | "C"gfe "G"dBG | "Am"AcB "D7"AGF | "G"G3 G2 ||
"D7"c |\
"G"Bcd GBd | "C"gfe "G"dBG | "Am"ABc EFG | "A7"ABG "D7"FED |\
"G"dBG "Am"ecA | "Bm"fdB "C"gfe | "G"dBG "D7"AFD | "G"G3 G2 |]
